<?xml version="1.0" encoding="UTF-8"?>
<map version="1.10" tiledversion="1.11.2" orientation="isometric" renderorder="right-down" width="33" height="20" tilewidth="64" tileheight="32" infinite="1" nextlayerid="6" nextobjectid="10">
 <tileset firstgid="1" source="../Tileset1.tsx"/>
 <layer id="3" name="F-1" width="33" height="20">
  <data encoding="csv">
   <chunk x="-16" y="0" width="16" height="16">
0,0,0,0,0,0,0,0,0,64,64,64,64,64,64,64,
0,0,0,0,0,0,0,0,0,64,64,64,64,64,64,64,
0,0,0,0,0,0,0,0,0,64,64,64,64,64,64,64,
0,0,0,0,0,0,0,0,0,64,64,64,64,64,64,64,
0,0,0,0,0,0,0,0,0,64,64,64,64,64,64,64,
0,0,0,0,0,0,0,0,0,64,64,64,64,64,64,64,
0,0,0,0,0,0,0,0,0,64,64,64,64,64,64,64,
0,0,0,0,0,0,0,0,0,64,64,64,64,64,64,64,
0,0,0,0,0,0,0,0,0,64,64,64,64,64,64,64,
0,0,0,0,0,0,0,0,0,64,64,64,64,64,64,64,
0,0,0,0,0,0,0,0,0,64,64,64,64,64,64,64,
0,0,0,0,0,0,0,0,0,64,64,64,64,64,64,64,
0,0,0,0,0,0,0,0,0,64,64,64,64,64,64,64,
0,0,0,0,0,0,0,0,0,64,64,64,64,64,64,64,
0,0,0,0,0,0,0,0,0,64,64,64,64,64,64,64,
0,0,0,0,0,0,0,0,0,64,64,64,64,64,64,64
</chunk>
   <chunk x="0" y="0" width="16" height="16">
64,64,64,64,64,64,64,64,64,64,64,64,64,0,0,0,
64,64,64,64,64,64,64,64,64,64,64,64,64,0,0,0,
64,64,64,64,64,64,64,64,64,64,64,64,64,0,0,0,
64,64,64,64,64,64,64,64,64,64,64,64,64,0,0,0,
64,64,64,64,64,64,64,64,64,64,64,64,64,0,0,0,
64,64,64,64,64,64,64,64,64,64,64,64,64,0,0,0,
64,64,64,64,64,64,64,64,64,64,64,64,64,0,0,0,
64,64,64,64,64,64,64,64,64,64,64,64,64,0,0,0,
64,64,64,64,64,64,64,64,64,64,64,64,64,0,0,0,
64,64,64,64,64,64,64,64,64,64,64,64,64,0,0,9,
64,64,64,64,64,64,64,64,64,64,64,64,64,0,0,9,
64,64,64,64,64,64,64,64,64,64,64,64,64,0,0,9,
64,64,64,64,64,64,64,64,64,64,64,64,64,0,9,9,
64,64,64,64,64,64,64,64,64,64,64,64,64,0,9,9,
64,64,64,64,64,64,64,64,64,64,64,64,64,0,9,9,
64,64,64,64,64,64,64,64,64,64,64,64,64,0,9,9
</chunk>
   <chunk x="16" y="0" width="16" height="16">
0,0,0,0,0,0,0,0,0,0,0,0,0,0,0,0,
0,0,0,0,0,0,0,0,0,0,0,0,0,0,0,0,
0,0,0,0,0,0,0,0,0,0,0,0,0,0,0,0,
0,0,0,0,0,0,0,0,0,0,0,0,0,0,0,0,
0,0,0,0,0,0,0,0,0,0,0,0,0,0,0,0,
0,0,0,0,0,0,0,0,0,0,0,0,0,0,0,0,
0,0,0,0,0,0,0,0,0,0,0,0,0,0,0,0,
0,0,0,0,0,0,9,9,9,9,9,9,9,9,9,9,
0,0,0,0,0,0,9,9,9,9,9,9,9,9,9,9,
9,9,0,0,0,0,9,9,9,9,9,9,9,9,9,9,
9,9,0,0,0,0,9,9,9,9,9,9,9,9,9,9,
9,9,0,0,0,0,9,9,9,9,9,9,9,9,9,9,
9,9,9,0,0,0,9,9,9,9,9,9,9,9,9,9,
9,9,9,0,0,0,9,9,9,9,9,9,9,9,9,9,
9,9,9,0,0,0,0,0,0,0,0,0,0,0,0,0,
9,9,9,0,0,0,0,0,0,0,0,0,0,0,0,0
</chunk>
   <chunk x="32" y="0" width="16" height="16">
0,0,0,0,0,0,0,0,0,0,0,0,0,0,0,0,
0,0,0,0,0,0,0,0,0,0,0,0,0,0,0,0,
0,0,0,0,0,0,0,0,0,0,0,0,0,0,0,0,
0,0,0,0,0,0,0,0,0,0,0,0,0,0,0,0,
0,0,0,0,0,0,0,0,0,0,0,0,0,0,0,0,
0,0,0,0,0,0,0,0,0,0,0,0,0,0,0,0,
0,0,0,0,0,0,0,0,0,0,0,0,0,0,0,0,
9,0,0,0,0,0,0,0,0,0,0,0,0,0,0,0,
9,0,0,0,0,0,0,0,0,0,0,0,0,0,0,0,
9,0,0,0,0,0,0,0,0,0,0,0,0,0,0,0,
9,0,0,0,0,0,0,0,0,0,0,0,0,0,0,0,
9,0,0,0,0,0,0,0,0,0,0,0,0,0,0,0,
9,0,0,0,0,0,0,0,0,0,0,0,0,0,0,0,
9,0,0,0,0,0,0,0,0,0,0,0,0,0,0,0,
0,0,0,0,0,0,0,0,0,0,0,0,0,0,0,0,
0,0,0,0,0,0,0,0,0,0,0,0,0,0,0,0
</chunk>
   <chunk x="-16" y="16" width="16" height="16">
0,0,0,0,0,0,0,0,0,64,64,64,64,64,64,64,
0,0,0,0,0,0,0,0,0,64,64,64,64,64,64,64,
0,0,0,0,0,0,0,0,0,64,64,64,64,64,64,64,
0,0,0,0,0,0,0,0,0,64,64,64,64,64,64,64,
0,0,0,0,0,0,0,0,0,64,64,64,64,64,64,64,
0,0,0,0,0,0,0,0,0,64,64,64,64,64,64,64,
0,0,0,0,0,0,0,0,0,64,64,64,64,64,64,64,
0,0,0,0,0,0,0,0,0,64,64,64,64,64,64,64,
0,0,0,0,0,0,0,0,0,64,64,64,64,64,64,64,
0,0,0,0,0,0,0,0,0,0,0,0,0,0,0,0,
0,0,0,0,0,0,0,0,0,0,0,0,0,0,0,0,
0,0,0,0,0,0,0,0,0,0,0,0,0,0,0,0,
0,0,0,0,0,0,0,0,0,0,0,0,0,0,0,0,
0,0,0,0,0,0,0,0,0,0,0,0,0,0,0,0,
0,0,0,0,0,0,0,0,0,0,0,0,0,0,0,0,
0,0,0,0,0,0,0,0,0,0,0,0,0,0,0,0
</chunk>
   <chunk x="0" y="16" width="16" height="16">
64,64,64,64,64,64,64,64,64,64,64,64,64,0,9,9,
64,64,64,64,64,64,64,64,64,64,64,64,64,0,9,9,
64,64,64,64,64,64,64,64,64,64,64,64,64,0,9,9,
64,64,64,64,64,64,64,64,64,64,64,64,64,0,9,9,
64,64,64,64,64,64,64,64,64,64,64,64,64,0,9,9,
64,64,64,64,64,64,64,64,64,64,64,64,64,9,9,9,
64,64,64,64,64,64,64,64,64,64,64,64,64,0,9,9,
64,64,64,64,64,64,64,64,64,64,64,64,64,0,9,9,
64,64,64,64,64,64,64,64,64,64,64,64,64,0,0,0,
0,0,0,0,0,0,0,0,0,0,0,0,0,0,0,0,
0,0,0,0,0,0,0,0,0,0,0,0,0,0,0,0,
0,0,0,0,0,0,0,0,0,0,0,0,0,0,0,0,
0,0,0,0,0,0,0,0,0,0,0,0,0,0,0,0,
0,0,0,0,0,0,0,0,0,0,0,0,0,0,0,0,
0,0,0,0,0,0,0,0,0,0,0,0,0,0,0,0,
0,0,0,0,0,0,0,0,0,0,0,0,0,0,0,0
</chunk>
   <chunk x="16" y="16" width="16" height="16">
9,9,9,0,0,0,0,0,0,0,0,0,0,0,0,0,
9,9,9,0,0,0,0,0,9,9,9,9,9,9,9,9,
9,9,9,0,0,0,0,0,9,9,9,9,9,9,9,9,
9,9,9,0,0,0,0,0,9,9,9,9,9,9,9,9,
9,9,9,0,0,0,0,0,0,0,9,9,9,9,9,0,
9,9,9,9,9,9,9,9,9,9,9,9,9,9,9,0,
9,9,9,9,9,9,9,9,9,9,9,9,9,9,9,0,
9,9,9,9,9,9,9,9,9,9,9,9,9,9,9,0,
0,0,0,0,0,0,0,0,0,0,0,0,0,0,0,0,
0,0,0,0,0,0,0,0,0,0,0,0,0,0,0,0,
0,0,0,0,0,0,0,0,0,0,0,0,0,0,0,0,
0,0,0,0,0,0,0,0,0,0,0,0,0,0,0,0,
0,0,0,0,0,0,0,0,0,0,0,0,0,0,0,0,
0,0,0,0,0,0,0,0,0,0,0,0,0,0,0,0,
0,0,0,0,0,0,0,0,0,0,0,0,0,0,0,0,
0,0,0,0,0,0,0,0,0,0,0,0,0,0,0,0
</chunk>
   <chunk x="32" y="16" width="16" height="16">
0,0,0,0,0,0,0,0,0,0,0,0,0,0,0,0,
9,9,0,0,0,0,0,0,0,0,0,0,0,0,0,0,
9,9,0,0,0,0,0,0,0,0,0,0,0,0,0,0,
9,9,0,0,0,0,0,0,0,0,0,0,0,0,0,0,
0,0,0,0,0,0,0,0,0,0,0,0,0,0,0,0,
0,0,0,0,0,0,0,0,0,0,0,0,0,0,0,0,
0,0,0,0,0,0,0,0,0,0,0,0,0,0,0,0,
0,0,0,0,0,0,0,0,0,0,0,0,0,0,0,0,
0,0,0,0,0,0,0,0,0,0,0,0,0,0,0,0,
0,0,0,0,0,0,0,0,0,0,0,0,0,0,0,0,
0,0,0,0,0,0,0,0,0,0,0,0,0,0,0,0,
0,0,0,0,0,0,0,0,0,0,0,0,0,0,0,0,
0,0,0,0,0,0,0,0,0,0,0,0,0,0,0,0,
0,0,0,0,0,0,0,0,0,0,0,0,0,0,0,0,
0,0,0,0,0,0,0,0,0,0,0,0,0,0,0,0,
0,0,0,0,0,0,0,0,0,0,0,0,0,0,0,0
</chunk>
  </data>
 </layer>
 <layer id="1" name="F0" width="33" height="20" tintcolor="#ffff7f">
  <data encoding="csv">
   <chunk x="-16" y="0" width="16" height="16">
0,0,0,0,0,0,0,0,0,0,0,0,0,0,0,0,
0,0,0,0,0,0,0,0,0,0,0,0,64,64,64,64,
0,0,0,0,0,0,0,0,0,0,0,0,64,64,64,64,
0,0,0,0,0,0,0,0,0,0,0,0,64,64,64,64,
0,0,0,0,0,0,0,0,64,64,64,64,64,64,64,64,
0,0,0,0,0,0,0,0,64,64,64,64,64,64,64,64,
0,0,0,0,0,0,0,0,64,64,64,64,64,64,64,64,
0,0,0,0,0,0,0,0,64,64,64,64,64,64,64,64,
0,0,0,0,0,0,0,0,64,64,64,64,64,64,64,64,
0,0,0,0,0,0,0,0,64,64,64,64,64,64,64,64,
0,0,0,0,0,0,0,0,64,64,64,64,64,64,64,64,
0,0,0,0,0,0,0,0,64,64,64,64,64,64,64,64,
0,0,0,0,0,0,0,0,64,64,64,64,64,64,64,64,
0,0,0,0,0,0,0,0,64,64,64,64,64,64,64,64,
0,0,0,0,0,0,0,0,64,64,64,64,64,64,64,64,
0,0,0,0,0,0,0,0,64,64,64,64,64,64,64,64
</chunk>
   <chunk x="0" y="0" width="16" height="16">
0,0,0,0,0,0,0,0,0,0,0,0,0,0,0,0,
64,64,64,64,64,64,64,64,64,64,0,0,0,0,0,0,
64,64,64,64,64,64,64,64,64,64,0,0,0,0,0,0,
64,64,64,64,64,64,64,64,64,64,0,0,0,0,0,0,
64,64,64,64,64,64,64,64,64,64,64,64,64,0,0,0,
64,64,64,64,64,64,64,64,64,64,64,64,64,0,0,0,
64,64,64,64,64,64,64,64,64,64,64,64,64,0,0,0,
64,64,64,64,64,64,64,64,64,64,64,64,64,0,0,0,
64,64,64,64,64,64,64,64,64,64,64,64,64,0,9,9,
64,64,64,64,64,64,64,64,64,64,64,64,64,0,9,9,
64,64,64,64,64,64,64,64,64,64,64,64,64,0,9,9,
64,64,64,64,64,64,64,64,64,64,64,64,64,9,9,9,
64,64,64,64,64,64,64,64,64,64,64,64,64,9,9,9,
64,64,64,64,64,64,64,64,64,64,64,64,64,0,0,0,
64,64,64,64,64,64,64,64,64,64,64,64,64,49,49,49,
64,64,64,64,64,64,64,64,64,64,64,64,64,9,9,9
</chunk>
   <chunk x="16" y="0" width="16" height="16">
0,0,0,0,0,0,0,0,0,0,0,0,0,0,0,0,
0,0,0,0,0,0,0,0,0,0,0,0,0,0,0,0,
0,0,0,0,0,0,0,0,0,0,0,0,0,0,0,0,
0,0,0,0,0,0,0,0,0,0,0,0,0,0,0,0,
0,0,0,0,0,0,0,0,0,0,0,0,0,0,0,0,
0,0,0,0,0,0,0,0,0,0,0,0,0,0,0,0,
0,0,0,0,0,9,0,52,9,9,9,9,9,9,9,9,
0,0,0,0,0,9,0,52,9,9,9,9,9,9,9,9,
9,0,0,0,9,9,0,52,9,9,9,50,9,9,9,9,
9,31,31,31,9,9,0,52,9,9,9,0,9,9,9,9,
9,0,0,0,9,9,0,52,9,9,9,9,9,9,9,9,
9,9,0,0,0,9,0,52,9,9,9,9,9,9,9,9,
9,9,0,0,0,9,0,52,9,9,9,9,9,9,9,9,
0,0,0,0,0,0,0,0,0,0,0,0,31,0,0,0,
49,49,0,0,0,0,0,0,0,0,0,0,31,0,0,0,
9,9,0,0,0,0,0,0,0,0,0,0,31,0,0,0
</chunk>
   <chunk x="-16" y="16" width="16" height="16">
0,0,0,0,0,0,0,0,64,64,64,64,64,64,64,64,
0,0,0,0,0,0,0,0,64,64,64,64,64,64,64,64,
0,0,0,0,0,0,0,0,64,64,64,64,64,64,64,64,
0,0,0,0,0,0,0,0,64,64,64,64,64,64,64,64,
0,0,0,0,0,0,0,0,64,64,64,64,64,64,64,64,
0,0,0,0,0,0,0,0,64,64,64,64,64,64,64,64,
0,0,0,0,0,0,0,0,64,64,64,64,64,64,64,64,
0,0,0,0,0,0,0,0,64,64,64,64,64,64,64,64,
0,0,0,0,0,0,0,0,64,64,64,64,64,64,64,64,
0,0,0,0,0,0,0,0,64,64,64,64,64,64,64,64,
0,0,0,0,0,0,0,0,0,0,0,0,64,64,64,64,
0,0,0,0,0,0,0,0,0,0,0,0,0,0,0,0,
0,0,0,0,0,0,0,0,0,0,0,0,0,0,0,0,
0,0,0,0,0,0,0,0,0,0,0,0,0,0,0,0,
0,0,0,0,0,0,0,0,0,0,0,0,0,0,0,0,
0,0,0,0,0,0,0,0,0,0,0,0,0,0,0,0
</chunk>
   <chunk x="0" y="16" width="16" height="16">
64,64,64,64,64,64,64,64,64,64,64,64,64,9,9,9,
64,64,64,64,64,64,64,64,64,64,64,64,64,9,9,9,
64,64,64,64,64,64,64,64,64,64,64,64,64,0,0,0,
64,64,64,64,64,64,64,64,64,64,64,64,64,49,9,9,
64,64,64,64,64,64,64,64,64,64,64,64,64,9,9,9,
64,64,64,64,64,64,64,64,64,64,64,64,64,9,9,9,
64,64,64,64,64,64,64,64,64,64,64,64,64,9,51,0,
64,64,64,64,64,64,64,64,64,64,64,64,64,0,0,0,
64,64,64,64,64,64,64,64,64,64,64,64,64,0,0,0,
64,64,64,64,64,64,64,64,64,64,64,64,64,0,0,0,
64,64,64,64,64,64,64,64,64,64,0,0,0,0,0,0,
0,0,0,0,0,0,0,0,0,0,0,0,0,0,0,0,
0,0,0,0,0,0,0,0,0,0,0,0,0,0,0,0,
0,0,0,0,0,0,0,0,0,0,0,0,0,0,0,0,
0,0,0,0,0,0,0,0,0,0,0,0,0,0,0,0,
0,0,0,0,0,0,0,0,0,0,0,0,0,0,0,0
</chunk>
   <chunk x="16" y="16" width="16" height="16">
9,9,0,0,0,0,0,9,9,9,9,9,9,9,9,9,
9,9,0,0,0,0,31,9,9,9,9,9,9,9,9,9,
0,0,0,0,0,0,0,9,9,9,9,1,1,1,9,9,
9,49,0,0,0,0,0,0,0,0,9,9,9,9,0,0,
9,9,0,9,0,9,0,9,0,9,9,9,9,9,0,0,
9,9,0,9,0,9,0,9,0,9,9,9,9,9,0,0,
0,0,0,0,0,0,0,0,0,9,9,9,9,9,0,0,
0,0,0,0,0,0,0,0,0,0,0,0,0,0,0,0,
0,0,0,0,0,0,0,0,0,0,0,0,0,0,0,0,
0,0,0,0,0,0,0,0,0,0,0,0,0,0,0,0,
0,0,0,0,0,0,0,0,0,0,0,0,0,0,0,0,
0,0,0,0,0,0,0,0,0,0,0,0,0,0,0,0,
0,0,0,0,0,0,0,0,0,0,0,0,0,0,0,0,
0,0,0,0,0,0,0,0,0,0,0,0,0,0,0,0,
0,0,0,0,0,0,0,0,0,0,0,0,0,0,0,0,
0,0,0,0,0,0,0,0,0,0,0,0,0,0,0,0
</chunk>
   <chunk x="32" y="16" width="16" height="16">
9,0,0,0,0,0,0,0,0,0,0,0,0,0,0,0,
9,31,0,0,0,0,0,0,0,0,0,0,0,0,0,0,
9,0,0,0,0,0,0,0,0,0,0,0,0,0,0,0,
0,0,0,0,0,0,0,0,0,0,0,0,0,0,0,0,
0,0,0,0,0,0,0,0,0,0,0,0,0,0,0,0,
0,0,0,0,0,0,0,0,0,0,0,0,0,0,0,0,
0,0,0,0,0,0,0,0,0,0,0,0,0,0,0,0,
0,0,0,0,0,0,0,0,0,0,0,0,0,0,0,0,
0,0,0,0,0,0,0,0,0,0,0,0,0,0,0,0,
0,0,0,0,0,0,0,0,0,0,0,0,0,0,0,0,
0,0,0,0,0,0,0,0,0,0,0,0,0,0,0,0,
0,0,0,0,0,0,0,0,0,0,0,0,0,0,0,0,
0,0,0,0,0,0,0,0,0,0,0,0,0,0,0,0,
0,0,0,0,0,0,0,0,0,0,0,0,0,0,0,0,
0,0,0,0,0,0,0,0,0,0,0,0,0,0,0,0,
0,0,0,0,0,0,0,0,0,0,0,0,0,0,0,0
</chunk>
  </data>
 </layer>
 <layer id="2" name="F1" width="33" height="20">
  <data encoding="csv">
   <chunk x="-16" y="0" width="16" height="16">
0,0,0,0,0,0,0,0,0,0,0,0,0,0,0,0,
0,0,0,0,0,0,0,0,0,0,0,0,0,0,0,0,
0,0,0,0,0,0,0,0,0,0,0,0,0,0,0,0,
0,0,0,0,0,0,0,0,0,0,0,64,64,64,64,64,
0,0,0,0,0,0,0,0,0,0,0,64,64,64,64,64,
0,0,0,0,0,0,0,0,0,0,0,64,64,64,64,64,
0,0,0,0,0,0,0,0,0,0,0,64,64,64,64,64,
0,0,0,0,0,0,0,0,0,0,0,64,64,64,64,64,
0,0,0,0,0,0,0,0,0,0,0,64,64,64,64,64,
0,0,0,0,0,0,0,0,0,0,0,64,64,64,64,64,
0,0,0,0,0,0,0,0,0,0,0,64,64,64,64,64,
0,0,0,0,0,0,0,0,0,0,0,64,64,64,64,64,
0,0,0,0,0,0,0,0,0,0,0,64,64,64,64,64,
0,0,0,0,0,0,0,0,0,0,0,64,64,64,64,64,
0,0,0,0,0,0,0,0,0,0,0,64,64,64,64,64,
0,0,0,0,0,0,0,0,0,0,0,64,64,64,64,64
</chunk>
   <chunk x="0" y="0" width="16" height="16">
0,0,0,0,0,0,0,0,0,0,0,0,0,0,0,0,
0,0,0,0,0,0,0,0,0,0,0,0,0,0,0,0,
0,0,0,0,0,0,0,0,0,0,0,0,0,0,0,0,
64,64,64,64,64,64,64,64,64,0,0,0,0,0,0,0,
64,64,64,64,64,64,64,64,64,0,0,0,0,0,0,0,
64,64,64,64,64,64,64,64,64,0,0,0,0,0,0,0,
64,64,64,64,64,64,64,64,64,0,0,0,0,0,0,0,
64,64,64,64,64,64,64,64,64,0,0,0,0,0,0,0,
64,64,64,64,64,64,64,64,64,0,0,0,0,0,0,0,
64,64,64,64,64,64,64,64,64,0,0,0,0,0,0,0,
64,64,64,64,64,64,64,64,64,0,0,0,0,0,0,0,
64,64,64,64,64,64,64,64,64,0,0,0,0,0,0,0,
64,64,64,64,64,64,64,64,64,0,0,0,0,0,0,0,
64,64,64,64,64,64,64,64,64,0,0,0,0,0,0,0,
64,64,64,64,64,64,64,64,64,0,0,0,0,0,0,0,
64,64,64,64,64,64,64,64,64,0,0,0,0,1,1,1
</chunk>
   <chunk x="16" y="0" width="16" height="16">
0,0,0,0,0,0,0,0,0,0,0,0,0,0,0,0,
0,0,0,0,0,0,0,0,0,0,0,0,0,0,0,0,
0,0,0,0,0,0,0,0,0,0,0,0,0,0,0,0,
0,0,0,0,0,0,0,0,0,0,0,0,0,0,0,0,
0,0,0,0,0,0,0,0,0,0,0,0,0,0,0,0,
0,0,0,0,0,0,0,0,1,9,9,9,9,9,9,0,
0,0,0,0,0,0,0,0,0,0,0,0,0,0,9,0,
0,0,0,0,0,0,0,0,1,9,0,9,9,0,9,0,
0,0,0,0,0,0,0,0,0,0,0,0,4,0,1,0,
0,0,0,0,0,0,0,0,1,9,9,0,9,9,9,0,
0,0,0,0,0,0,0,0,1,9,9,0,9,9,9,0,
0,0,0,0,0,0,0,0,1,9,9,0,9,9,9,0,
0,0,0,0,0,0,0,0,0,0,0,0,0,0,0,0,
0,0,0,0,0,0,0,0,0,0,0,0,0,0,0,0,
0,0,0,0,0,0,0,0,0,0,0,0,0,0,0,0,
0,0,0,0,0,0,0,10,0,32,0,0,0,0,10,0
</chunk>
   <chunk x="-16" y="16" width="16" height="16">
0,0,0,0,0,0,0,0,0,0,0,64,64,64,64,64,
0,0,0,0,0,0,0,0,0,0,0,64,64,64,64,64,
0,0,0,0,0,0,0,0,0,0,0,64,64,64,64,64,
0,0,0,0,0,0,0,0,0,0,0,64,64,64,64,64,
0,0,0,0,0,0,0,0,0,0,0,64,64,64,64,64,
0,0,0,0,0,0,0,0,0,0,0,64,64,64,64,64,
0,0,0,0,0,0,0,0,0,0,0,64,64,64,64,64,
0,0,0,0,0,0,0,0,0,0,0,64,64,64,64,64,
0,0,0,0,0,0,0,0,0,0,0,64,64,64,64,64,
0,0,0,0,0,0,0,0,0,0,0,64,64,64,64,64,
0,0,0,0,0,0,0,0,0,0,0,64,64,64,64,64,
0,0,0,0,0,0,0,0,0,0,0,64,64,64,64,64,
0,0,0,0,0,0,0,0,0,0,0,64,64,64,64,64,
0,0,0,0,0,0,0,0,0,0,0,64,64,64,64,64,
0,0,0,0,0,0,0,0,0,0,0,0,0,0,0,0,
0,0,0,0,0,0,0,0,0,0,0,0,0,0,0,0
</chunk>
   <chunk x="0" y="16" width="16" height="16">
64,64,64,64,64,64,64,64,64,0,0,0,0,0,0,0,
64,64,64,64,64,64,64,64,64,0,0,0,0,0,0,0,
64,64,64,64,64,64,64,64,64,0,0,0,0,0,0,0,
64,64,64,64,64,64,64,64,64,0,0,0,0,0,18,0,
64,64,64,64,64,64,64,64,64,0,0,0,0,0,0,0,
64,64,64,64,64,64,64,64,64,0,0,0,0,0,0,0,
64,64,64,64,64,64,64,64,64,0,0,0,0,0,0,0,
64,64,64,64,64,64,64,64,64,0,0,0,0,0,0,0,
64,64,64,64,64,64,64,64,64,0,0,0,0,0,0,0,
64,64,64,64,64,64,64,64,64,0,0,0,0,0,0,0,
64,64,64,64,64,64,64,64,64,0,0,0,0,0,0,0,
64,64,64,64,64,64,64,64,64,0,0,0,0,0,0,0,
64,64,64,64,64,64,64,64,64,0,0,0,0,0,0,0,
64,64,64,64,64,64,64,64,64,0,0,0,0,0,0,0,
0,0,0,0,0,0,0,0,0,0,0,0,0,0,0,0,
0,0,0,0,0,0,0,0,0,0,0,0,0,0,0,0
</chunk>
   <chunk x="16" y="16" width="16" height="16">
0,0,0,0,0,0,0,10,0,32,0,25,0,0,10,0,
0,0,0,0,0,0,0,10,0,32,0,0,0,0,10,0,
0,0,0,0,0,0,0,0,0,9,9,9,9,0,0,0,
0,0,0,0,0,0,0,0,0,52,9,9,9,0,0,0,
0,0,0,0,0,0,0,0,0,52,9,9,9,0,0,0,
0,0,0,0,0,0,0,0,0,52,9,9,9,0,0,0,
0,0,0,0,0,0,0,0,0,0,0,0,0,0,0,0,
0,0,0,0,0,0,0,0,0,0,0,0,0,0,0,0,
0,0,0,0,0,0,0,0,0,0,0,0,0,0,0,0,
0,0,0,0,0,0,0,0,0,0,0,0,0,0,0,0,
0,0,0,0,0,0,0,0,0,0,0,0,0,0,0,0,
0,0,0,0,0,0,0,0,0,0,0,0,0,0,0,0,
0,0,0,0,0,0,0,0,0,0,0,0,0,0,0,0,
0,0,0,0,0,0,0,0,0,0,0,0,0,0,0,0,
0,0,0,0,0,0,0,0,0,0,0,0,0,0,0,0,
0,0,0,0,0,0,0,0,0,0,0,0,0,0,0,0
</chunk>
  </data>
 </layer>
 <layer id="4" name="F2" width="33" height="20">
  <data encoding="csv">
   <chunk x="-16" y="0" width="16" height="16">
0,0,0,0,0,0,0,0,0,0,0,0,0,0,0,0,
0,0,0,0,0,0,0,0,0,0,0,0,0,0,0,0,
0,0,0,0,0,0,0,0,0,0,0,0,0,0,0,0,
0,0,0,0,0,0,0,0,0,0,0,0,0,0,0,0,
0,0,0,0,0,0,0,0,0,0,0,0,0,0,0,0,
0,0,0,0,0,0,0,0,0,0,0,0,0,0,0,0,
0,0,0,0,0,0,0,0,0,0,0,0,0,0,0,0,
0,0,0,0,0,0,0,0,0,0,0,0,0,0,0,0,
0,0,0,0,0,0,0,0,0,0,0,0,0,0,0,0,
0,0,0,0,0,0,0,0,0,0,0,0,0,0,0,0,
0,0,0,0,0,0,0,0,0,0,64,64,64,64,64,64,
0,0,0,0,0,0,0,0,0,0,64,64,64,64,64,64,
0,0,0,0,0,0,0,0,0,0,64,64,64,64,64,64,
0,0,0,0,0,0,0,0,0,0,64,64,64,64,64,64,
0,0,0,0,0,0,0,0,0,0,64,64,64,64,64,64,
0,0,0,0,0,0,0,0,0,0,64,64,64,64,64,64
</chunk>
   <chunk x="0" y="0" width="16" height="16">
0,0,0,0,0,0,0,0,0,0,0,0,0,0,0,0,
0,0,0,0,0,0,0,0,0,0,0,0,0,0,0,0,
0,0,0,0,0,0,0,0,0,0,0,0,0,0,0,0,
0,0,0,0,0,0,0,0,0,0,0,0,0,0,0,0,
0,0,0,0,0,0,0,0,0,0,0,0,0,0,0,0,
0,0,0,0,0,0,0,0,0,0,0,0,0,0,0,0,
0,0,0,0,0,0,0,0,0,0,0,0,0,0,0,0,
0,0,0,0,0,0,0,0,0,0,0,0,0,0,0,0,
0,0,0,0,0,0,0,0,0,0,0,0,0,0,0,0,
0,0,0,0,0,0,0,0,0,0,0,0,0,0,0,0,
64,64,64,64,0,0,0,0,0,0,0,0,0,0,0,0,
64,64,64,64,0,0,0,0,0,0,0,0,0,0,0,0,
64,64,64,64,0,0,0,0,0,0,0,0,0,0,0,0,
64,64,64,64,0,0,0,0,0,0,0,0,0,0,0,0,
64,64,64,64,0,0,0,0,0,0,0,0,0,0,0,0,
64,64,64,64,0,0,0,0,0,0,0,0,0,0,0,0
</chunk>
   <chunk x="-16" y="16" width="16" height="16">
0,0,0,0,0,0,0,0,0,0,64,64,64,64,64,64,
0,0,0,0,0,0,0,0,0,0,64,64,64,64,64,64,
0,0,0,0,0,0,0,0,0,0,64,64,64,64,64,64,
0,0,0,0,0,0,0,0,0,0,64,64,64,64,64,64,
0,0,0,0,0,0,0,0,0,0,64,64,64,64,64,64,
0,0,0,0,0,0,0,0,0,0,64,64,64,64,64,64,
0,0,0,0,0,0,0,0,0,0,64,64,64,64,64,64,
0,0,0,0,0,0,0,0,0,0,64,64,64,64,64,64,
0,0,0,0,0,0,0,0,0,0,64,64,64,64,64,64,
0,0,0,0,0,0,0,0,0,0,64,64,64,64,64,64,
0,0,0,0,0,0,0,0,0,0,64,64,64,64,64,64,
0,0,0,0,0,0,0,0,0,0,0,0,0,0,0,0,
0,0,0,0,0,0,0,0,0,0,0,0,0,0,0,0,
0,0,0,0,0,0,0,0,0,0,0,0,0,0,0,0,
0,0,0,0,0,0,0,0,0,0,0,0,0,0,0,0,
0,0,0,0,0,0,0,0,0,0,0,0,0,0,0,0
</chunk>
   <chunk x="0" y="16" width="16" height="16">
64,64,64,64,0,0,0,0,0,0,0,0,0,0,0,0,
64,64,64,64,0,0,0,0,0,0,0,0,0,0,0,0,
64,64,64,64,0,0,0,0,0,0,0,0,0,0,0,0,
64,64,64,64,0,0,0,0,0,0,0,0,0,0,0,0,
64,64,64,64,0,0,0,0,0,0,0,0,0,0,0,0,
64,64,64,64,0,0,0,0,0,0,0,0,0,0,0,0,
64,64,64,64,0,0,0,0,0,0,0,0,0,0,0,0,
64,64,64,64,0,0,0,0,0,0,0,0,0,0,0,0,
64,64,64,64,0,0,0,0,0,0,0,0,0,0,0,0,
64,64,64,64,0,0,0,0,0,0,0,0,0,0,0,0,
64,64,64,64,0,0,0,0,0,0,0,0,0,0,0,0,
0,0,0,0,0,0,0,0,0,0,0,0,0,0,0,0,
0,0,0,0,0,0,0,0,0,0,0,0,0,0,0,0,
0,0,0,0,0,0,0,0,0,0,0,0,0,0,0,0,
0,0,0,0,0,0,0,0,0,0,0,0,0,0,0,0,
0,0,0,0,0,0,0,0,0,0,0,0,0,0,0,0
</chunk>
   <chunk x="16" y="16" width="16" height="16">
0,0,0,0,0,0,0,0,0,0,0,0,0,0,0,0,
0,0,0,0,0,0,0,0,28,0,0,0,0,0,0,0,
0,0,0,0,0,0,0,0,0,0,0,0,0,0,0,0,
0,0,0,0,0,0,0,0,0,0,0,0,0,0,0,0,
0,0,0,0,0,0,0,0,0,0,0,0,0,0,0,0,
0,0,0,0,0,0,0,0,0,0,0,0,0,0,0,0,
0,0,0,0,0,0,0,0,0,0,0,0,0,0,0,0,
0,0,0,0,0,0,0,0,0,0,0,0,0,0,0,0,
0,0,0,0,0,0,0,0,0,0,0,0,0,0,0,0,
0,0,0,0,0,0,0,0,0,0,0,0,0,0,0,0,
0,0,0,0,0,0,0,0,0,0,0,0,0,0,0,0,
0,0,0,0,0,0,0,0,0,0,0,0,0,0,0,0,
0,0,0,0,0,0,0,0,0,0,0,0,0,0,0,0,
0,0,0,0,0,0,0,0,0,0,0,0,0,0,0,0,
0,0,0,0,0,0,0,0,0,0,0,0,0,0,0,0,
0,0,0,0,0,0,0,0,0,0,0,0,0,0,0,0
</chunk>
  </data>
 </layer>
 <objectgroup id="5" name="Notes">
  <object id="1" x="612.25" y="38.75" width="285" height="66">
   <text wrap="1">Aca hay un pozo con una rampa hacia la derecha. Si el player sabe de saltos puede saltarse el resto del puzzle.</text>
  </object>
  <object id="2" x="1083" y="343" width="168.5" height="37">
   <text wrap="1">Aca hay un ventilador ya puesto</text>
  </object>
  <object id="3" x="99.25" y="435.75" width="634" height="43">
   <text wrap="1">Este tuto puzzle puede ser resuelto sin recurrir a este ventilador si el player ya sabe sobre saltos. Pero si alguien que no sabe llega a este ventilador, saltar es su unica salida</text>
  </object>
  <object id="4" x="1085.75" y="553.25" width="83" height="19">
   <text wrap="1">Entrada</text>
  </object>
  <object id="5" x="616.25" y="522.75" width="83" height="19">
   <text wrap="1">Salida</text>
  </object>
  <object id="6" x="-106.5" y="42.5">
   <ellipse/>
  </object>
  <object id="8" x="727.5" y="76.5">
   <polygon points="0,0 113.5,162.5 77,139 105.5,126.5 114.5,163.5"/>
  </object>
  <object id="9" x="1100" y="300">
   <polygon points="0,0 -143.25,-45.75 -122.5,-65.5 -111.25,-10.75 -143.25,-45.75"/>
  </object>
 </objectgroup>
</map>
