<?xml version="1.0" encoding="UTF-8"?>
<map version="1.10" tiledversion="1.11.2" orientation="isometric" renderorder="right-down" width="30" height="20" tilewidth="64" tileheight="32" infinite="1" nextlayerid="6" nextobjectid="4">
 <tileset firstgid="1" source="../Tileset1.tsx"/>
 <layer id="3" name="F-1" width="30" height="20" tintcolor="#ffff7f">
  <data encoding="csv">
   <chunk x="0" y="-16" width="16" height="16">
0,0,0,0,0,0,0,0,0,0,0,0,0,0,0,0,
0,0,0,0,0,0,0,0,0,0,0,0,0,0,0,0,
0,0,0,0,0,0,0,0,0,0,0,0,0,0,0,0,
0,0,0,0,0,0,0,0,0,0,0,0,0,0,0,0,
0,0,0,0,0,0,0,0,0,0,0,0,0,0,0,0,
0,0,0,0,0,0,0,0,0,0,0,0,0,0,0,0,
0,0,0,0,0,0,0,0,0,0,0,0,0,0,0,0,
0,0,0,0,0,0,0,0,0,0,0,0,0,0,0,0,
0,0,0,0,0,0,0,0,0,0,0,0,0,0,0,0,
0,0,0,0,0,0,0,0,0,0,0,0,0,0,0,0,
0,0,0,0,0,0,0,0,0,0,0,0,0,0,0,0,
0,0,0,0,0,0,0,0,0,0,0,0,0,0,0,0,
0,0,0,0,0,0,0,0,0,31,0,0,0,0,0,0,
0,0,0,0,0,0,0,0,9,9,9,0,0,0,0,0,
0,0,0,0,0,0,0,0,9,9,9,0,0,0,0,0,
0,0,0,0,0,0,0,0,9,9,9,0,0,0,0,0
</chunk>
   <chunk x="0" y="0" width="16" height="16">
0,0,0,0,0,0,0,0,9,9,9,0,0,0,0,0,
0,0,0,0,0,0,0,0,9,9,9,0,0,0,0,0,
0,0,0,0,0,0,0,0,9,9,9,0,0,0,0,0,
0,0,0,9,9,9,9,9,9,9,9,9,9,9,9,9,
0,0,0,9,9,9,9,9,9,9,9,9,9,9,9,9,
0,0,0,9,1,9,9,9,9,9,9,9,9,9,1,9,
0,0,0,9,9,9,9,9,9,9,9,9,9,9,9,9,
0,0,0,9,9,9,9,9,9,9,9,9,9,9,9,9,
0,0,0,9,1,9,9,9,9,9,9,9,9,9,1,9,
0,0,0,9,9,9,9,9,9,9,9,9,9,9,9,9,
0,0,0,9,9,9,9,9,9,9,9,9,0,9,9,9,
0,0,0,9,1,9,9,9,9,9,9,9,9,9,1,9,
0,0,0,9,9,9,9,9,9,9,9,9,9,9,9,9,
0,0,0,9,9,9,9,9,9,9,9,9,9,9,9,9,
0,0,0,0,0,0,0,0,9,9,9,0,0,0,0,0,
0,0,0,0,0,0,0,0,9,9,9,0,0,0,0,0
</chunk>
   <chunk x="0" y="16" width="16" height="16">
0,0,0,0,0,0,0,0,0,31,0,0,0,0,0,0,
0,0,0,0,0,0,0,0,0,0,0,0,0,0,0,0,
0,0,0,0,0,0,0,0,0,0,0,0,0,0,0,0,
0,0,0,0,0,0,0,0,0,0,0,0,0,0,0,0,
0,0,0,0,0,0,0,0,0,0,0,0,0,0,0,0,
0,0,0,0,0,0,0,0,0,0,0,0,0,0,0,0,
0,0,0,0,0,0,0,0,0,0,0,0,0,0,0,0,
0,0,0,0,0,0,0,0,0,0,0,0,0,0,0,0,
0,0,0,0,0,0,0,0,0,0,0,0,0,0,0,0,
0,0,0,0,0,0,0,0,0,0,0,0,0,0,0,0,
0,0,0,0,0,0,0,0,0,0,0,0,0,0,0,0,
0,0,0,0,0,0,0,0,0,0,0,0,0,0,0,0,
0,0,0,0,0,0,0,0,0,0,0,0,0,0,0,0,
0,0,0,0,0,0,0,0,0,0,0,0,0,0,0,0,
0,0,0,0,0,0,0,0,0,0,0,0,0,0,0,0,
0,0,0,0,0,0,0,0,0,0,0,0,0,0,0,0
</chunk>
  </data>
 </layer>
 <layer id="1" name="F0" width="30" height="20">
  <data encoding="csv">
   <chunk x="0" y="-16" width="16" height="16">
0,0,0,0,0,0,0,0,0,0,0,0,0,0,0,0,
0,0,0,0,0,0,0,0,0,0,0,0,0,0,0,0,
0,0,0,0,0,0,0,0,0,0,0,0,0,0,0,0,
0,0,0,0,0,0,0,0,0,0,0,0,0,0,0,0,
0,0,0,0,0,0,0,0,0,0,0,0,0,0,0,0,
0,0,0,0,0,0,0,0,0,0,0,0,0,0,0,0,
0,0,0,0,0,0,0,0,0,0,0,0,0,0,0,0,
0,0,0,0,0,0,0,0,0,0,0,0,0,0,0,0,
0,0,0,0,0,0,0,0,0,0,0,0,0,0,0,0,
0,0,0,0,0,0,0,0,0,0,0,0,0,0,0,0,
0,0,0,0,0,0,0,0,0,0,0,0,0,0,0,0,
0,0,0,0,0,0,0,0,0,0,0,0,0,0,0,0,
0,0,0,0,0,0,0,0,0,0,0,0,0,0,0,0,
0,0,0,0,0,0,0,3,3,3,0,0,0,0,0,0,
0,0,0,0,0,0,0,0,0,0,0,0,0,0,0,0,
0,0,0,0,0,0,0,0,0,0,0,0,0,0,0,0
</chunk>
   <chunk x="0" y="0" width="16" height="16">
0,0,0,0,0,0,0,2,2,2,0,0,0,0,0,0,
0,0,0,0,0,0,0,0,0,0,0,0,0,0,0,0,
0,0,0,0,0,10,0,0,0,0,0,10,0,0,0,0,
0,0,0,0,0,9,0,0,0,0,0,9,0,0,0,0,
0,0,0,24,24,9,3,9,2,9,3,9,24,24,0,0,
0,0,0,0,0,9,0,9,0,9,0,9,0,0,0,0,
0,0,0,0,0,9,0,9,0,9,0,9,0,0,0,0,
0,0,0,24,24,9,2,9,3,9,3,9,24,24,0,0,
0,0,0,0,0,9,0,9,0,9,0,9,0,0,0,0,
0,0,0,0,0,9,0,9,0,9,0,9,0,0,0,0,
0,0,0,24,24,9,3,9,3,9,2,9,24,24,0,0,
0,0,0,0,0,9,0,0,0,0,0,9,0,0,0,0,
0,0,0,19,0,10,0,0,0,0,0,10,0,19,0,0,
0,0,0,0,0,0,0,0,0,0,0,0,0,0,0,0,
0,0,0,0,0,0,0,0,0,0,0,0,0,0,0,0,
0,0,0,0,0,0,0,0,0,0,0,0,0,0,0,0
</chunk>
  </data>
 </layer>
 <layer id="2" name="F0.5" width="30" height="20">
  <data encoding="csv">
   <chunk x="0" y="0" width="16" height="16">
0,0,0,0,0,0,0,0,0,0,0,0,0,0,0,0,
0,0,0,0,0,0,0,0,0,0,0,0,0,0,0,0,
0,0,0,0,0,0,0,0,0,0,0,0,0,0,0,0,
0,0,0,0,24,0,24,0,0,0,24,0,0,0,0,0,
0,0,0,0,0,0,0,0,0,0,0,0,8,0,0,0,
0,0,0,0,0,0,0,0,0,0,0,0,0,0,0,0,
0,0,0,0,24,0,24,0,24,0,24,0,0,0,0,0,
0,0,0,0,0,0,0,0,0,0,0,0,8,0,0,0,
0,0,0,0,0,0,0,0,0,0,0,0,0,0,0,0,
0,0,0,0,24,0,0,0,24,0,24,0,0,0,0,0,
0,0,0,0,0,0,0,0,0,0,0,0,8,0,0,0,
0,0,0,0,0,0,0,0,0,0,0,0,0,0,0,0,
0,0,0,0,0,0,0,0,0,0,0,0,0,0,0,0,
0,0,0,0,0,0,0,0,0,0,0,0,0,0,0,0,
0,0,0,0,0,0,0,0,0,0,0,0,0,0,0,0,
0,0,0,0,0,0,0,0,0,0,0,0,0,0,0,0
</chunk>
  </data>
 </layer>
 <objectgroup id="5" name="Notas">
  <object id="1" x="-167.75" y="312.75" width="309" height="61">
   <text wrap="1">Habitacion C: Afianzar conocimientos de alternadores. El player tiene que armar un camino valido con lo que tiene disponible</text>
  </object>
  <object id="2" x="-50.25" y="-50.75" width="447" height="86">
   <text wrap="1">Requisito de traer el alternador que sobraba en el cuarto pasado para pasar por aca. No se lo puede llevar de este cuarto (Si queremos poner un alternador del otro lado para que en el HUB el player tenga 2 es una posibilidad a evaluar)</text>
  </object>
 </objectgroup>
</map>
